static/img/showcase/zCloak_logo.svg

<svg fill="none" height="44" viewBox="0 0 44 44" width="44" xmlns="http://www.w3.org/2000/svg" xmlns:xlink="http://www.w3.org/1999/xlink"><mask id="a" height="44" maskUnits="userSpaceOnUse" width="40" x="2" y="0"><path d="m3.29612 18.4859c.83978 1.44 1.41643 3.0181 1.70291 4.6605 2.33828-1.2199 5.01597-1.6258 7.61047-1.1536 1.7495.3673 3.3818 1.1596 4.753 2.3072.9403.7866 2.0036 1.413 3.1472 1.854 1.8738.4538 3.8237.4949 5.7149.1203 5.3245-.8454 8.834-.59 11.7886.7729-.3854.0709-.7921.1648-1.2319.2703-3.3655-1.0391-6.9469-1.162-10.3756-.356-1.5644.2675-3.1579.3202-4.7365.1566-1.2288-.1795-2.4033-.6267-3.4404-1.3102-.4381-.3065-.919-.674-1.4213-1.0349-1.1644-.851-2.4525-1.518-3.8192-1.9776-1.2867-.3012-2.616-.3748-3.92796-.2175-1.12845.1718-2.22347.5176-3.24608 1.025-.76478.4146-1.3938 1.0412-1.81161 1.8046.07905.4493.15042.8141.2141 1.0942.02635-.0379.65876-1.9924 2.15911-2.0946 1.50035-.1021 2.01419 1.6002 2.22499 2.5379.20399 1.2152.22342 2.4541.05764 3.6751-.05764.674-.11693 1.3694-.11693 2.0484-.01536 1.068.11204 2.1332.37879 3.1674.4282.4845.88275.9427 1.35875 1.3843-.77274-1.386-1.13384-2.964-1.04089-4.5484 0-.646.05764-1.3184.11034-1.9891.17569-1.2996.15125-2.6185-.07246-3.9107-.07169-.5546-.2601-1.0877-.55278-1.5641-.29269-.4763-.68301-.8852-1.1452-1.1996 1.59164-.0966 3.17619.2807 4.55379 1.0844 1.385.9113 1.9581 2.1869 3.4041 3.5283 1.6238 1.4761 3.615 2.4871 5.7643 2.9269 1.462.1403 2.9365-.0646 4.305-.5982 1.4658-.473 4.1173-1.6332 5.6506-2.1029 1.1019-.329 2.2351-.5422 3.3811-.6361-1.3998.6361-3.2938 2.1753-3.246 3.3388.0477 1.1965.634 1.9595.3178 3.1197-.3162 1.1601-.9651 1.7254-.9651 2.5708-5.2537 1.4074-9.5933 1.1042-12.8707-.9113-2.2755-1.4075-3.9868-3.5677-4.837-6.1058l-.1532-.4944h-.7477c.8233 2.9936 2.7423 5.5676 5.3756 7.2099 2.1954 1.2812 4.7062 1.9196 7.2465 1.8425 2.0676-.0277 4.123-.3229 6.115-.8784.1054.5867.2388.6032.6719 1.4387.4827.7031.695 1.557.5978 2.4044-2.5669 1.102-5.331 1.6705-8.1242 1.6711-1.1456-.0006-2.2892-.096-3.419-.2851-5.5489-.9952-10.4804-4.1433-13.72092-8.7591-3.24055-4.6158-4.52784-10.3256-3.58166-15.8866zm35.77108 10.1203c.4216-.0649.8527.0178 1.2204.234l.3096.1945c.3663.2503.6777.5725.9156.947.2378.3745.397.7936.4679 1.2316.0283.5214-.0676 1.0421-.2797 1.5192-.2122.477-.5346.8968-.9407 1.2247-.0318.0334-.0702.0597-.1127.0773-.0426.0176-.0883.0261-.1344.0249-.0349.0052-.0704.0052-.1054 0l-6.7853-2.0913-.0626-.0247c-.1525.2045-.2335.4535-.2305.7086.0266.2705.0881.5364.1828.7911.2782.6723.3045 1.4225.0741 2.1127-.1301.3877-.3042.7593-.5188 1.1074-.2119.2431-.3355.5506-.3508.8728-.0152.3222.0788.6401.2668.9021.1367.2653.2833.4944.4085.7037.5117.6561.7669 1.4763.718 2.3072-.0074.0868-.047.1678-.1109.227-.064.0591-.1478.0922-.2349.0927h-.0264c-.044-.0023-.087-.0134-.1266-.0327-.0396-.0192-.075-.0462-.104-.0794.0419-.848-.2074-1.6848-.7065-2.3714-.1202-.2192-.2668-.4697-.4084-.7499-.1882-.2902-.2812-.6319-.2662-.9775.0151-.3456.1375-.6779.3502-.9506.2147-.3758.3871-.7743.5138-1.1882.2246-.7277.1967-1.51-.079-2.2198-.0982-.2779-.1581-.5679-.1779-.8619-.0086-.169.0201-.3378.084-.4944.336-.565.8011-1.0423 1.357-1.3926.9146-.6529 1.9331-1.1461 3.0123-1.4585.3623-.0922.7016-.173 1.0211-.2389l.3557-.061.2536-.0478zm.3937.6592h-.1845c-.4943.052-.9846.1373-1.4674.2554-1.1585.2789-2.2527.7779-3.223 1.4701-.1647.1268-.3459.2603-.5139.3971l6.3341 1.9644c.2861-.2651.5122-.5885.663-.9484.1509-.3599.223-.7479.2115-1.1379-.1182-.6827-.5012-1.2911-1.0655-1.6925l-.2405-.1483c-.2085-.1283-.4528-.1861-.6966-.1648zm-22.7704-13.2317c-.5335.3072-1.0902.5722-1.665.7927-2.647 1.0074-5.54715 1.1385-8.27414.3741.14214.8856.09169 1.7914-.14791 2.6557s-.6627 1.6667-1.24045 2.3525c-.37838-2.2163-1.3811-4.2785-2.89034-5.9443.73659-.0369 1.47059-.1144 2.19864-.2323 8.8538-1.3679 11.3539-.4516 12.0192.0016zm1.2896.0264c-.0712 1.134-.3671 2.2425-.8703 3.261-.5033 1.0185-1.204 1.9267-2.0613 2.6717-2.829-.9685-5.89958-.9685-8.72864 0 .81738-1.1706 1.21338-2.5843 1.12321-4.0095 1.79268.4396 3.65793.4956 5.47373.1642s3.5412-1.0428 5.0633-2.0874zm16.0789-12.86423c3.0871 1.73316 5.6955 4.20674 7.5906 7.19843l.3492.5685-8.4207 4.9588c-.0429-.0708-.084-.1351-.1269-.2043-.7905-1.2615-1.8253-2.352-3.0435-3.2071-1.2183-.8551-2.5952-1.4576-4.0497-1.772s-2.9572-.3343-4.4195-.0585c-1.4624.2757-2.8547.8416-4.0951 1.6642 4.1458-4.8822 9.8951-8.12564 16.2156-9.14803zm-2.1246-1.03493c-2.7545.64677-5.3968 1.70217-7.8393 3.13117-3.9389 2.31564-7.2765 5.52829-9.7416 9.37709-3.2715-.179-6.55262.0363-9.77278.641-.19105.033-.37056.0594-.57643.0808.1647-.4944.33762-.997.53361-1.4832 1.00701-2.5874 2.51923-4.94813 4.44831-6.94414 1.92909-1.99602 4.23639-3.58733 6.78699-4.68097 2.5506-1.09365 5.2935-1.667688 8.0684-1.688592 2.7748-.020904 5.526.511752 8.0928 1.566842z" fill="#fff"/></mask><mask id="b" height="334" maskUnits="userSpaceOnUse" width="334" x="-13" y="-145"><path d="m-12.3457 188.44h332.6777v-332.893h-332.6777z" fill="#fff"/></mask><g mask="url(#a)"><g mask="url(#b)"><path d="m.828125-1.07861h42.912175v46.14371h-42.912175z" fill="#51f0ca"/></g></g></svg>

<svg width="44" height="44" viewBox="0 0 44 44" fill="none" xmlns="http://www.w3.org/2000/svg">
<mask id="mask0_691_186" style="mask-type:luminance" maskUnits="userSpaceOnUse" x="2" y="0" width="40" height="44">
<path d="M3.29612 18.4859C4.1359 19.9259 4.71255 21.504 4.99903 23.1464C7.33731 21.9265 10.015 21.5206 12.6095 21.9928C14.359 22.3601 15.9913 23.1524 17.3625 24.3C18.3028 25.0866 19.3661 25.713 20.5097 26.154C22.3835 26.6078 24.3334 26.6489 26.2246 26.2743C31.5491 25.4289 35.0586 25.6843 38.0132 27.0472C37.6278 27.1181 37.2211 27.212 36.7813 27.3175C33.4158 26.2784 29.8344 26.1555 26.4057 26.9615C24.8413 27.229 23.2478 27.2817 21.6692 27.1181C20.4404 26.9386 19.2659 26.4914 18.2288 25.8079C17.7907 25.5014 17.3098 25.1339 16.8075 24.773C15.6431 23.922 14.355 23.255 12.9883 22.7954C11.7016 22.4942 10.3723 22.4206 9.06034 22.5779C7.93189 22.7497 6.83687 23.0955 5.81426 23.6029C5.04948 24.0175 4.42046 24.6441 4.00265 25.4075C4.0817 25.8568 4.15307 26.2216 4.21675 26.5017C4.2431 26.4638 4.87551 24.5093 6.37586 24.4071C7.87621 24.305 8.39005 26.0073 8.60085 26.945C8.80484 28.1602 8.82427 29.3991 8.65849 30.6201C8.60085 31.2941 8.54156 31.9895 8.54156 32.6685C8.5262 33.7365 8.6536 34.8017 8.92035 35.8359C9.34855 36.3204 9.8031 36.7786 10.2791 37.2202C9.50636 35.8342 9.14526 34.2562 9.23821 32.6718C9.23821 32.0258 9.29585 31.3534 9.34855 30.6827C9.52424 29.3831 9.4998 28.0642 9.27609 26.772C9.2044 26.2174 9.01599 25.6843 8.72331 25.2079C8.43062 24.7316 8.0403 24.3227 7.57811 24.0083C9.16975 23.9117 10.7543 24.289 12.1319 25.0927C13.5169 26.004 14.09 27.2796 15.536 28.621C17.1598 30.0971 19.151 31.1081 21.3003 31.5479C22.7623 31.6882 24.2368 31.4833 25.6053 30.9497C27.0711 30.4767 29.7226 29.3165 31.2559 28.8468C32.3578 28.5178 33.491 28.3046 34.637 28.2107C33.2372 28.8468 31.3432 30.386 31.391 31.5495C31.4387 32.746 32.025 33.509 31.7088 34.6692C31.3926 35.8293 30.7437 36.3946 30.7437 37.24C25.49 38.6474 21.1504 38.3442 17.873 36.3287C15.5975 34.9212 13.8862 32.761 13.036 30.2229L12.8828 29.7285H12.1351C12.9584 32.7221 14.8774 35.2961 17.5107 36.9384C19.7061 38.2196 22.2169 38.858 24.7572 38.7809C26.8248 38.7532 28.8802 38.458 30.8722 37.9025C30.9776 38.4892 31.111 38.5057 31.5441 39.3412C32.0268 40.0443 32.2391 40.8982 32.1419 41.7456C29.575 42.8476 26.8109 43.4161 24.0177 43.4167C22.8721 43.4161 21.7285 43.3207 20.5987 43.1316C15.0498 42.1364 10.1183 38.9883 6.87778 34.3725C3.63723 29.7567 2.34994 24.0469 3.29612 18.4859ZM39.0672 28.6062C39.4888 28.5413 39.9199 28.624 40.2876 28.8402L40.5972 29.0347C40.9635 29.285 41.2749 29.6072 41.5128 29.9817C41.7506 30.3562 41.9098 30.7753 41.9807 31.2133C42.009 31.7347 41.9131 32.2554 41.701 32.7325C41.4888 33.2095 41.1664 33.6293 40.7603 33.9572C40.7285 33.9906 40.6901 34.0169 40.6476 34.0345C40.605 34.0521 40.5593 34.0606 40.5132 34.0594C40.4783 34.0646 40.4428 34.0646 40.4078 34.0594L33.6225 31.9681L33.5599 31.9434C33.4074 32.1479 33.3264 32.3969 33.3294 32.652C33.356 32.9225 33.4175 33.1884 33.5122 33.4431C33.7904 34.1154 33.8167 34.8656 33.5863 35.5558C33.4562 35.9435 33.2821 36.3151 33.0675 36.6632C32.8556 36.9063 32.732 37.2138 32.7167 37.536C32.7015 37.8582 32.7955 38.1761 32.9835 38.4381C33.1202 38.7034 33.2668 38.9325 33.392 39.1418C33.9037 39.7979 34.1589 40.6181 34.11 41.449C34.1026 41.5358 34.063 41.6168 33.9991 41.676C33.9351 41.7351 33.8513 41.7682 33.7642 41.7687H33.7378C33.6938 41.7664 33.6508 41.7553 33.6112 41.736C33.5716 41.7168 33.5362 41.6898 33.5072 41.6566C33.5491 40.8086 33.2998 39.9718 32.8007 39.2852C32.6805 39.066 32.5339 38.8155 32.3923 38.5353C32.2041 38.2451 32.1111 37.9034 32.1261 37.5578C32.1412 37.2122 32.2636 36.8799 32.4763 36.6072C32.691 36.2314 32.8634 35.8329 32.9901 35.419C33.2147 34.6913 33.1868 33.909 32.9111 33.1992C32.8129 32.9213 32.753 32.6313 32.7332 32.3373C32.7246 32.1683 32.7533 31.9995 32.8172 31.8429C33.1532 31.2779 33.6183 30.8006 34.1742 30.4503C35.0888 29.7974 36.1073 29.3042 37.1865 28.9918C37.5488 28.8996 37.8881 28.8188 38.2076 28.7529L38.5633 28.6919L38.8169 28.6441L39.0672 28.6062ZM39.4609 29.2654H39.2764C38.7821 29.3174 38.2918 29.4027 37.809 29.5208C36.6505 29.7997 35.5563 30.2987 34.586 30.9909C34.4213 31.1177 34.2401 31.2512 34.0721 31.388L40.4062 33.3524C40.6923 33.0873 40.9184 32.7639 41.0692 32.404C41.2201 32.0441 41.2922 31.6561 41.2807 31.2661C41.1625 30.5834 40.7795 29.975 40.2152 29.5736L39.9747 29.4253C39.7662 29.297 39.5219 29.2392 39.2781 29.2605L39.4609 29.2654ZM16.6905 16.0337C16.157 16.3409 15.6003 16.6059 15.0255 16.8264C12.3785 17.8338 9.47835 17.9649 6.75136 17.2005C6.8935 18.0861 6.84305 18.9919 6.60345 19.8562C6.36385 20.7205 5.94075 21.5229 5.363 22.2087C4.98462 19.9924 3.9819 17.9302 2.47266 16.2644C3.20925 16.2275 3.94325 16.15 4.6713 16.0321C13.5251 14.6642 16.0252 15.5805 16.6905 16.0337ZM17.9801 16.0601C17.9089 17.1941 17.613 18.3026 17.1098 19.3211C16.6065 20.3396 15.9058 21.2478 15.0485 21.9928C12.2195 21.0243 9.14892 21.0243 6.31986 21.9928C7.13724 20.8222 7.53324 19.4085 7.44307 17.9833C9.23575 18.4229 11.101 18.4789 12.9168 18.1475C14.7326 17.8161 16.458 17.1047 17.9801 16.0601ZM34.059 3.19587C37.1461 4.92903 39.7545 7.40261 41.6496 10.3943L41.9988 10.9628L33.5781 15.9216C33.5352 15.8508 33.4941 15.7865 33.4512 15.7173C32.6607 14.4558 31.6259 13.3653 30.4077 12.5102C29.1894 11.6551 27.8125 11.0526 26.358 10.7382C24.9035 10.4238 23.4008 10.4039 21.9385 10.6797C20.4761 10.9554 19.0838 11.5213 17.8434 12.3439C21.9892 7.4617 27.7385 4.21826 34.059 3.19587ZM31.9344 2.16094C29.1799 2.80771 26.5376 3.86311 24.0951 5.29211C20.1562 7.60775 16.8186 10.8204 14.3535 14.6692C11.082 14.4902 7.80088 14.7055 4.58072 15.3102C4.38967 15.3432 4.21016 15.3696 4.00429 15.391C4.16899 14.8966 4.34191 14.394 4.5379 13.9078C5.54491 11.3204 7.05713 8.95967 8.98621 6.96366C10.9153 4.96764 13.2226 3.37633 15.7732 2.28269C18.3238 1.18904 21.0667 0.615002 23.8416 0.594098C26.6164 0.573194 29.3676 1.10585 31.9344 2.16094Z" fill="white"/>
</mask>
<g mask="url(#mask0_691_186)">
<mask id="mask1_691_186" style="mask-type:luminance" maskUnits="userSpaceOnUse" x="-13" y="-145" width="334" height="334">
<path d="M-12.3457 188.44H320.332V-144.453H-12.3457V188.44Z" fill="white"/>
</mask>
<g mask="url(#mask1_691_186)">
<path d="M0.828125 -1.07861H43.7403V45.0651H0.828125V-1.07861Z" fill="#51F0CA"/>
</g>
</g>
</svg>
